brandFactory_export/1.Light/Bateria_1Light.svg

<?xml version="1.0" encoding="UTF-8"?>
<svg width="24px" height="24px" viewBox="0 0 24 24" version="1.1" xmlns="http://www.w3.org/2000/svg" xmlns:xlink="http://www.w3.org/1999/xlink">
    <title>1.Light/Bateria_1Light</title>
    <g id="Symbols" stroke="none" stroke-width="1" fill="none" fill-rule="evenodd">
        <g id="1.Light/Bateria_1Light" fill="#5CB615" fill-rule="nonzero">
            <path d="M18.7310924,19.7714286 C18.7310924,20.7630252 18.4991597,21.4689076 18.0218487,21.9260504 C17.5478992,22.3831933 16.8252101,22.605042 15.8168067,22.605042 L8.9697479,22.605042 C7.96134454,22.605042 7.23865546,22.3831933 6.76470588,21.9260504 C6.28739496,21.4655462 6.05546218,20.7630252 6.05546218,19.7714286 L6.05546218,6.4605042 C6.05546218,5.49579832 6.28739496,4.80336134 6.76470588,4.33277311 C7.2487395,3.85882353 7.96806723,3.62689076 8.9697479,3.62689076 L15.8168067,3.62689076 C16.8285714,3.62689076 17.5512605,3.85210084 18.0252101,4.31596639 C18.4991597,4.77983193 18.7310924,5.4789916 18.7310924,6.4605042 L18.7310924,19.7714286 Z M10.3512605,1.81176471 C10.3512605,1.38151261 10.492437,1.24369748 10.5361345,1.2 C10.5831933,1.15294118 10.7243697,1.01512605 11.1714286,1.01512605 L13.8403361,1.01512605 C14.297479,1.01512605 14.4319328,1.14957983 14.4789916,1.19327731 C14.5226891,1.23697479 14.6605042,1.37142857 14.6605042,1.81176471 L14.6605042,2.61176471 L10.3512605,2.61176471 L10.3512605,1.81176471 Z M18.7647059,3.6 C18.0823529,2.93445378 17.1176471,2.61176471 15.8134454,2.61176471 L15.702521,2.61176471 L15.702521,1.81176471 C15.702521,1.24033613 15.5378151,0.793277311 15.2151261,0.477310924 C14.892437,0.161344538 14.4285714,0 13.8403361,0 L11.1714286,0 C10.5831933,0 10.1226891,0.164705882 9.79327731,0.484033613 C9.47058824,0.803361345 9.30588235,1.25042017 9.30588235,1.80840336 L9.30588235,2.60840336 L8.9697479,2.60840336 C7.67563025,2.60840336 6.71428571,2.93781513 6.02184874,3.61680672 C5.34285714,4.28571429 5.01344538,5.21680672 5.01344538,6.45714286 L5.01344538,19.7680672 C5.01344538,21.0453782 5.34957983,21.9865546 6.03193277,22.6453782 C6.71092437,23.3008403 7.67226891,23.6201681 8.9697479,23.6201681 L15.8168067,23.6201681 C17.1142857,23.6201681 18.0756303,23.3008403 18.7546218,22.6453782 C19.4403361,21.9865546 19.7731092,21.0453782 19.7731092,19.7680672 L19.7731092,6.45714286 C19.7731092,5.19663866 19.4436975,4.26218487 18.7647059,3.6 Z" id="Bateria_1Light"></path>
        </g>
    </g>
</svg>

<svg width="24" height="24" viewBox="0 0 24 24" xmlns="http://www.w3.org/2000/svg"><path d="M18.731 19.771c0 .992-.232 1.698-.71 2.155-.473.457-1.196.679-2.204.679H8.97c-1.009 0-1.731-.222-2.205-.679-.478-.46-.71-1.163-.71-2.155V6.461c0-.965.232-1.658.71-2.128.484-.474 1.203-.706 2.205-.706h6.847c1.012 0 1.734.225 2.208.689.474.464.706 1.163.706 2.145v13.31zm-8.38-17.96c0-.43.141-.567.185-.611.047-.047.188-.185.635-.185h2.67c.456 0 .59.135.638.178.044.044.182.178.182.619v.8h-4.31v-.8zM18.765 3.6c-.683-.666-1.647-.988-2.952-.988h-.11v-.8c0-.572-.165-1.019-.488-1.335C14.892.161 14.43 0 13.84 0h-2.669c-.588 0-1.048.165-1.378.484-.322.32-.487.766-.487 1.324v.8H8.97c-1.294 0-2.256.33-2.948 1.009-.68.669-1.009 1.6-1.009 2.84v13.311c0 1.277.337 2.219 1.019 2.877.679.656 1.64.975 2.938.975h6.847c1.297 0 2.259-.32 2.938-.975.685-.658 1.018-1.6 1.018-2.877V6.458c0-1.261-.33-2.196-1.008-2.858z" fill="#5CB615" fill-rule="nonzero"/></svg>
